Papirus/32x32/apps/libreoffice-calc.svg

<?xml version="1.0" encoding="UTF-8" standalone="no"?>
<!-- Created with Inkscape (http://www.inkscape.org/) -->

<svg
   width="32"
   height="32"
   viewBox="0 0 32 32"
   version="1.1"
   id="svg5"
   inkscape:version="1.2.2 (1:1.2.2+202305151914+b0a8486541)"
   sodipodi:docname="libreoffice-calc.svg"
   xmlns:inkscape="http://www.inkscape.org/namespaces/inkscape"
   xmlns:sodipodi="http://sodipodi.sourceforge.net/DTD/sodipodi-0.dtd"
   xmlns="http://www.w3.org/2000/svg"
   xmlns:svg="http://www.w3.org/2000/svg">
  <sodipodi:namedview
     id="namedview7"
     pagecolor="#ffffff"
     bordercolor="#000000"
     borderopacity="0.25"
     inkscape:showpageshadow="2"
     inkscape:pageopacity="0.0"
     inkscape:pagecheckerboard="0"
     inkscape:deskcolor="#d1d1d1"
     inkscape:document-units="px"
     showgrid="false"
     inkscape:zoom="25.9375"
     inkscape:cx="16"
     inkscape:cy="16"
     inkscape:window-width="1920"
     inkscape:window-height="1008"
     inkscape:window-x="0"
     inkscape:window-y="0"
     inkscape:window-maximized="1"
     inkscape:current-layer="svg5" />
  <defs
     id="defs2" />
  <path
     d="m 21,3 h 6 V 9 Z M 9,3 h 10 l 8,8 v 16 c 0,2.216 -1.784,4 -4,4 H 9 C 6.784,31 5,29.216 5,27 V 7 C 5,4.784 6.784,3 9,3 Z"
     style="opacity:0.2;fill:#000000;stroke-width:0.5;stroke-linecap:square"
     id="path1115"
     sodipodi:nodetypes="ccccsccssssss" />
  <path
     d="m 9,2 h 10 l 8,8 v 16 c 0,2.216 -1.784,4 -4,4 H 9 C 6.784,30 5,28.216 5,26 V 6 C 5,3.784 6.784,2 9,2 Z"
     style="opacity:1;fill:#4ba425;fill-opacity:1;stroke-width:0.5;stroke-linecap:square"
     id="path1004" />
  <path
     d="m 21,2 h 6 v 6 z"
     style="fill:#419021;fill-opacity:1;stroke-width:0.375;stroke-linecap:square"
     id="path1087" />
  <path
     id="path2508"
     style="opacity:0.2;fill:#ffffff;stroke-width:0.5;stroke-linecap:square"
     d="M 9 2 C 6.7840022 2 5 3.7840024 5 6 L 5 7 C 5 4.7840022 6.7840022 3 9 3 L 20 3 L 19 2 L 9 2 z M 21 2 L 22 3 L 27 3 L 27 2 L 21 2 z " />
  <path
     d="m 9,12.5 c -0.554,0 -1,0.446003 -1,1 v 7 c 0,0.553999 0.446,1 1,1 h 6 v 2 c 0,0.554 0.446,1 1,1 h 7 c 0.554,0 1,-0.446 1,-1 v -5 c 0,-0.553999 -0.446,-1 -1,-1 h -2 v -4 c 0,-0.553997 -0.446,-1 -1,-1 z m 0,1 h 3 v 1 H 9 Z m 4,0 h 3 v 1 h -3 z m 4,0 h 3 v 1 h -3 z m -8,2 h 3 v 1 H 9 Z m 4,0 h 3 v 1 h -3 z m 4,0 h 3 v 1 h -3 z m -8,2 h 3 v 1 H 9 Z m 4,0 h 3 c -0.554,0 -1,0.446001 -1,1 h -2 z m -4,2 h 3 v 1 H 9 Z m 4,0 h 2 v 1 h -2 z"
     style="opacity:0.2;fill:#000000;stroke-width:0.5"
     id="path1678" />
  <path
     id="rect523"
     style="fill:#ffffff;stroke-width:0.5"
     d="m 9,12 c -0.554,0 -1,0.446002 -1,1 v 7 c 0,0.553999 0.446,1 1,1 h 11 c 0.554,0 1,-0.446001 1,-1 v -7 c 0,-0.553998 -0.446,-1 -1,-1 z m 0,1 h 3 v 1 H 9 Z m 4,0 h 3 v 1 h -3 z m 4,0 h 3 v 1 h -3 z m -8,2 h 3 v 1 H 9 Z m 4,0 h 3 v 1 h -3 z m 4,0 h 3 v 1 h -3 z m -8,2 h 3 v 1 H 9 Z m 4,0 h 3 v 1 h -3 z m 4,0 h 3 v 1 h -3 z m -8,2 h 3 v 1 H 9 Z m 4,0 h 3 v 1 h -3 z m 4,0 h 3 v 1 h -3 z"
     sodipodi:nodetypes="ssssssssscccccccccccccccccccccccccccccccccccccccccccccccccccccccccccc" />
  <rect
     style="fill:#b1e59b;fill-opacity:1;stroke-linecap:square"
     id="rect1012"
     width="9"
     height="6.9999962"
     x="15.000012"
     y="17"
     ry="1" />
  <path
     d="m 18,18 v 5 h 1 v -5 z m -2,1 v 4 h 1 v -4 z m 4,2 v 2 h 1 v -2 z m 2,-1 v 3 h 1 v -3 z"
     style="fill:#5aba30;fill-opacity:1;stroke:none;stroke-width:0.999997"
     id="path1650" />
</svg>

<svg xmlns="http://www.w3.org/2000/svg" width="32" height="32" version="1.1">
 <path style="opacity:0.2" d="M 9,3 H 19 L 27,11 V 27 C 27,29.216 25.216,31 23,31 H 9 C 6.784,31 5,29.216 5,27 V 7 C 5,4.784 6.784,3 9,3 Z"/>
 <path style="fill:#4ba425" d="m 9,2 h 10 l 8,8 v 16 c 0,2.216 -1.784,4 -4,4 H 9 C 6.784,30 5,28.216 5,26 V 6 C 5,3.784 6.784,2 9,2 Z"/>
 <path style="opacity:0.2" d="M 9,13 C 8.45,13 8,13.45 8,14 V 21 C 8,21.55 8.45,22 9,22 H 20 C 20.55,22 21,21.55 21,21 V 14 C 21,13.45 20.55,13 20,13 Z M 9,14 H 12 V 15 H 9 Z M 13,14 H 16 V 15 H 13 Z M 17,14 H 20 V 15 H 17 Z M 9,16 H 12 V 17 H 9 Z M 13,16 H 16 V 17 H 13 Z M 17,16 H 20 V 17 H 17 Z M 9,18 H 12 V 19 H 9 Z M 13,18 H 16 V 19 H 13 Z M 17,18 H 20 V 19 H 17 Z M 9,20 H 12 V 21 H 9 Z M 13,20 H 16 V 21 H 13 Z M 17,20 H 20 V 21 H 17 Z"/>
 <path style="fill:#419021" d="m 21,2 h 6 v 6 z"/>
 <path style="fill:#dff6d4" d="M 9,12 C 8.45,12 8,12.45 8,13 V 20 C 8,20.55 8.45,21 9,21 H 20 C 20.55,21 21,20.55 21,20 V 13 C 21,12.45 20.55,12 20,12 Z M 9,13 H 12 V 14 H 9 Z M 13,13 H 16 V 14 H 13 Z M 17,13 H 20 V 14 H 17 Z M 9,15 H 12 V 16 H 9 Z M 13,15 H 16 V 16 H 13 Z M 17,15 H 20 V 16 H 17 Z M 9,17 H 12 V 18 H 9 Z M 13,17 H 16 V 18 H 13 Z M 17,17 H 20 V 18 H 17 Z M 9,19 H 12 V 20 H 9 Z M 13,19 H 16 V 20 H 13 Z M 17,19 H 20 V 20 H 17 Z"/>
 <rect style="opacity:0.2" width="9" height="7" x="15" y="18" ry="1"/>
 <rect style="fill:#b1e59b" width="9" height="7" x="15" y="17" ry="1"/>
 <path style="fill:#5aba30" d="m 18,18 v 5 h 1 v -5 z m -2,1 v 4 h 1 v -4 z m 4,2 v 2 h 1 v -2 z m 2,-1 v 3 h 1 v -3 z"/>
 <path style="opacity:0.2;fill:#ffffff" d="M 9 2 C 6.784 2 5 3.784 5 6 L 5 7 C 5 4.784 6.784 3 9 3 L 19 3 L 27 11 L 27 10 L 19 2 L 9 2 z"/>
 <path style="fill:#ffffff;opacity:0.1" d="M 21 2 L 22 3 L 27 3 L 27 2 L 21 2 z"/>
</svg>
